public/zimo-favicon.svg

<?xml version="1.0" encoding="UTF-8" standalone="no"?>
<!DOCTYPE svg PUBLIC "-//W3C//DTD SVG 1.1//EN" "http://www.w3.org/Graphics/SVG/1.1/DTD/svg11.dtd">
<!-- Created with Vectornator (http://vectornator.io/) -->
<svg height="100%" stroke-miterlimit="10" style="fill-rule:nonzero;clip-rule:evenodd;stroke-linecap:round;stroke-linejoin:round;" version="1.1" viewBox="0 0 1060.54 1060.54" width="100%" xml:space="preserve" xmlns="http://www.w3.org/2000/svg" xmlns:vectornator="http://vectornator.io" xmlns:xlink="http://www.w3.org/1999/xlink">
<defs>
<path d="M22.2699 530.27C22.2699 249.709 249.709 22.2699 530.27 22.2699C810.831 22.2699 1038.27 249.709 1038.27 530.27C1038.27 810.831 810.831 1038.27 530.27 1038.27C249.709 1038.27 22.2699 810.831 22.2699 530.27Z" id="Fill"/>
<linearGradient gradientTransform="matrix(0.992188 0 0 0.992188 4.14273 4.14273)" gradientUnits="userSpaceOnUse" id="LinearGradient" x1="18.2699" x2="1042.27" y1="530.27" y2="530.27">
<stop offset="0" stop-color="#cacaca"/>
<stop offset="0.204086" stop-color="#f5f5f5"/>
<stop offset="1" stop-color="#ffffff"/>
</linearGradient>
<linearGradient gradientTransform="matrix(0.992188 0 0 0.992188 4.14273 4.14273)" gradientUnits="userSpaceOnUse" id="LinearGradient_2" x1="6.45599" x2="1054.08" y1="692.102" y2="692.102">
<stop offset="0" stop-color="#cacaca"/>
<stop offset="0.204086" stop-color="#f5f5f5"/>
<stop offset="1" stop-color="#ffffff"/>
</linearGradient>
<path d="M526.89-56.0311C306.936-55.0725 119.623 82.4023 44.5892 275.746C25.4235 348.854 13.8289 425.04 11.1336 503.514C11.6018 509.613 12.02 515.729 12.6927 521.769C12.0528 522.096 11.4457 522.478 10.8074 522.809C10.7168 528.482 10.5483 534.133 10.5483 539.829C10.5483 918.235 212.938 1249.1 515.197 1430.89C516.237 1430.27 517.347 1429.76 518.381 1429.14C523.475 1432.17 528.768 1434.85 533.973 1437.71C842.536 1257.45 1049.99 922.975 1049.99 539.829C1049.99 538.589 1049.93 537.364 1049.92 536.127C1047.99 534.972 1046.16 533.682 1044.21 532.552C1046.46 515.55 1047.64 498.231 1048.24 480.775C1044.71 417.942 1035.67 356.604 1021.47 297.25C951.81 91.0612 756.488-57.0316 526.89-56.0311Z" id="Fill_2"/>
<linearGradient gradientTransform="matrix(0.992188 0 0 0.992188 4.14273 4.14273)" gradientUnits="userSpaceOnUse" id="LinearGradient_3" x1="6.45599" x2="1054.08" y1="692.102" y2="692.102">
<stop offset="0" stop-color="#cacaca"/>
<stop offset="0.204086" stop-color="#f5f5f5"/>
<stop offset="1" stop-color="#ffffff"/>
</linearGradient>
<linearGradient gradientTransform="matrix(0.992188 0 0 0.992188 4.14273 4.14273)" gradientUnits="userSpaceOnUse" id="LinearGradient_4" x1="5.31362" x2="1052.94" y1="463.128" y2="463.128">
<stop offset="0" stop-color="#cacaca"/>
<stop offset="0.204086" stop-color="#f5f5f5"/>
<stop offset="1" stop-color="#ffffff"/>
</linearGradient>
<linearGradient gradientTransform="matrix(0.992188 0 0 0.992188 4.14273 4.14273)" gradientUnits="userSpaceOnUse" id="LinearGradient_5" x1="-276.928" x2="770.698" y1="988.178" y2="988.178">
<stop offset="0" stop-color="#cacaca"/>
<stop offset="0.204086" stop-color="#f5f5f5"/>
<stop offset="1" stop-color="#ffffff"/>
</linearGradient>
<linearGradient gradientTransform="matrix(0.992188 0 0 0.992188 4.14273 4.14273)" gradientUnits="userSpaceOnUse" id="LinearGradient_6" x1="261.96" x2="1309.59" y1="985.824" y2="985.824">
<stop offset="0" stop-color="#cacaca"/>
<stop offset="0.204086" stop-color="#f5f5f5"/>
<stop offset="1" stop-color="#ffffff"/>
</linearGradient>
</defs>
<g id="Layer-1" vectornator:layerName="Layer 1">
<g opacity="1" vectornator:layerName="Group 4">
<use fill="url(#LinearGradient)" fill-rule="nonzero" opacity="1" stroke="#000000" stroke-linecap="butt" stroke-linejoin="miter" stroke-width="40" vectornator:layerName="Oval 1" xlink:href="#Fill"/>
<clipPath clip-rule="nonzero" id="ClipPath">
<use xlink:href="#Fill"/>
</clipPath>
<g clip-path="url(#ClipPath)">
<g opacity="1" vectornator:layerName="Group 3">
<path d="M526.89-56.0311C306.936-55.0725 119.623 82.4023 44.5892 275.746C25.4235 348.854 13.8289 425.04 11.1336 503.514C11.6018 509.613 12.02 515.729 12.6927 521.769C12.0528 522.096 11.4457 522.478 10.8074 522.809C10.7168 528.482 10.5483 534.133 10.5483 539.829C10.5483 918.235 212.938 1249.1 515.197 1430.89C516.237 1430.27 517.347 1429.76 518.381 1429.14C523.475 1432.17 528.768 1434.85 533.973 1437.71C842.536 1257.45 1049.99 922.975 1049.99 539.829C1049.99 538.589 1049.93 537.364 1049.92 536.127C1047.99 534.972 1046.16 533.682 1044.21 532.552C1046.46 515.55 1047.64 498.231 1048.24 480.775C1044.71 417.942 1035.67 356.604 1021.47 297.25C951.81 91.0612 756.488-57.0316 526.89-56.0311Z" fill="url(#LinearGradient_2)" fill-rule="nonzero" opacity="0.332045" stroke="#000000" stroke-linecap="butt" stroke-linejoin="miter" stroke-width="40" vectornator:layerName="path"/>
<g opacity="1" vectornator:layerName="path">
<use fill="url(#LinearGradient_3)" fill-rule="nonzero" opacity="1" stroke="#000000" stroke-linecap="butt" stroke-linejoin="miter" stroke-width="40" vectornator:layerName="path" xlink:href="#Fill_2"/>
<clipPath clip-rule="nonzero" id="ClipPath_2">
<use xlink:href="#Fill_2"/>
</clipPath>
<g clip-path="url(#ClipPath_2)">
<path d="M9.41988 465.917C8.16974 178.886 239.84-54.8125 526.872-56.0634C813.903-57.3144 1047.6 174.357 1048.85 461.388C1050.1 748.419 818.434 982.117 531.402 983.369C244.37 984.619 10.6716 752.949 9.41988 465.917Z" fill="url(#LinearGradient_4)" fill-rule="nonzero" opacity="1" stroke="#000000" stroke-linecap="butt" stroke-linejoin="miter" stroke-width="40" vectornator:layerName="Oval 1"/>
<path d="M-270.617 986.864C-271.868 699.832-40.1971 466.134 246.834 464.883C533.865 463.632 767.565 695.303 768.815 982.334C770.067 1269.37 538.394 1503.07 251.363 1504.32C-35.6679 1505.57-269.366 1273.89-270.617 986.864Z" fill="url(#LinearGradient_5)" fill-rule="nonzero" opacity="1" stroke="#000000" stroke-linecap="butt" stroke-linejoin="miter" stroke-width="40" vectornator:layerName="Oval 2"/>
<path d="M264.061 984.533C262.811 697.502 494.482 463.804 781.513 462.552C1068.54 461.302 1302.25 692.973 1303.5 980.004C1304.75 1267.04 1073.08 1500.73 786.044 1501.98C499.011 1503.24 265.313 1271.56 264.061 984.533Z" fill="url(#LinearGradient_6)" fill-rule="nonzero" opacity="1" stroke="#000000" stroke-linecap="butt" stroke-linejoin="miter" stroke-width="40" vectornator:layerName="Oval 3"/>
</g>
</g>
</g>
</g>
</g>
<path d="M22.2699 530.27C22.2699 249.709 249.709 22.2699 530.27 22.2699C810.831 22.2699 1038.27 249.709 1038.27 530.27C1038.27 810.831 810.831 1038.27 530.27 1038.27C249.709 1038.27 22.2699 810.831 22.2699 530.27Z" fill="none" opacity="1" stroke="#000000" stroke-linecap="butt" stroke-linejoin="miter" stroke-width="40" vectornator:layerName="Oval 1"/>
</g>
</svg>

<svg xmlns="http://www.w3.org/2000/svg" xmlns:vectornator="http://vectornator.io" xmlns:xlink="http://www.w3.org/1999/xlink" xml:space="preserve" stroke-miterlimit="10" style="fill-rule:nonzero;clip-rule:evenodd;stroke-linecap:round;stroke-linejoin:round" viewBox="0 0 1060.54 1060.54"><defs><linearGradient id="a" x1="18.27" x2="1042.27" y1="530.27" y2="530.27" gradientTransform="matrix(.99219 0 0 .99219 4.143 4.143)" gradientUnits="userSpaceOnUse"><stop offset="0" stop-color="#cacaca"/><stop offset=".204" stop-color="#f5f5f5"/><stop offset="1" stop-color="#fff"/></linearGradient><linearGradient id="d" x1="6.456" x2="1054.08" y1="692.102" y2="692.102" gradientTransform="matrix(.99219 0 0 .99219 4.143 4.143)" gradientUnits="userSpaceOnUse"><stop offset="0" stop-color="#cacaca"/><stop offset=".204" stop-color="#f5f5f5"/><stop offset="1" stop-color="#fff"/></linearGradient><linearGradient id="e" x1="6.456" x2="1054.08" y1="692.102" y2="692.102" gradientTransform="matrix(.99219 0 0 .99219 4.143 4.143)" gradientUnits="userSpaceOnUse"><stop offset="0" stop-color="#cacaca"/><stop offset=".204" stop-color="#f5f5f5"/><stop offset="1" stop-color="#fff"/></linearGradient><linearGradient id="h" x1="5.314" x2="1052.94" y1="463.128" y2="463.128" gradientTransform="matrix(.99219 0 0 .99219 4.143 4.143)" gradientUnits="userSpaceOnUse"><stop offset="0" stop-color="#cacaca"/><stop offset=".204" stop-color="#f5f5f5"/><stop offset="1" stop-color="#fff"/></linearGradient><linearGradient id="i" x1="-276.928" x2="770.698" y1="988.178" y2="988.178" gradientTransform="matrix(.99219 0 0 .99219 4.143 4.143)" gradientUnits="userSpaceOnUse"><stop offset="0" stop-color="#cacaca"/><stop offset=".204" stop-color="#f5f5f5"/><stop offset="1" stop-color="#fff"/></linearGradient><linearGradient id="j" x1="261.96" x2="1309.59" y1="985.824" y2="985.824" gradientTransform="matrix(.99219 0 0 .99219 4.143 4.143)" gradientUnits="userSpaceOnUse"><stop offset="0" stop-color="#cacaca"/><stop offset=".204" stop-color="#f5f5f5"/><stop offset="1" stop-color="#fff"/></linearGradient><path id="b" d="M22.27 530.27c0-280.561 227.439-508 508-508 280.561 0 508 227.439 508 508 0 280.561-227.439 508-508 508-280.561 0-508-227.439-508-508Z"/><path id="f" d="M526.89-56.031c-219.954.959-407.267 138.433-482.3 331.777-19.167 73.108-30.761 149.294-33.456 227.768.468 6.099.886 12.215 1.559 18.255-.64.327-1.247.709-1.886 1.04-.09 5.673-.259 11.324-.259 17.02 0 378.406 202.39 709.271 504.649 891.061 1.04-.62 2.15-1.13 3.184-1.75 5.094 3.03 10.387 5.71 15.592 8.57 308.563-180.26 516.017-514.735 516.017-897.881 0-1.24-.06-2.465-.07-3.702-1.93-1.155-3.76-2.445-5.71-3.575 2.25-17.002 3.43-34.321 4.03-51.777-3.53-62.833-12.57-124.171-26.77-183.525C951.81 91.061 756.488-57.032 526.89-56.031Z"/></defs><g vectornator:layerName="Layer 1"><g vectornator:layerName="Group 4"><use vectornator:layerName="Oval 1" xlink:href="#b" fill="url(#a)" stroke="#000" stroke-linecap="butt" stroke-linejoin="miter" stroke-width="40"/><clipPath id="c" clip-rule="nonzero"><use xlink:href="#b"/></clipPath><g vectornator:layerName="Group 3" clip-path="url(#c)"><path vectornator:layerName="path" fill="url(#d)" stroke="#000" stroke-linecap="butt" stroke-linejoin="miter" stroke-width="40" d="M526.89-56.031c-219.954.959-407.267 138.433-482.3 331.777-19.167 73.108-30.761 149.294-33.456 227.768.468 6.099.886 12.215 1.559 18.255-.64.327-1.247.709-1.886 1.04-.09 5.673-.259 11.324-.259 17.02 0 378.406 202.39 709.271 504.649 891.061 1.04-.62 2.15-1.13 3.184-1.75 5.094 3.03 10.387 5.71 15.592 8.57 308.563-180.26 516.017-514.735 516.017-897.881 0-1.24-.06-2.465-.07-3.702-1.93-1.155-3.76-2.445-5.71-3.575 2.25-17.002 3.43-34.321 4.03-51.777-3.53-62.833-12.57-124.171-26.77-183.525C951.81 91.061 756.488-57.032 526.89-56.031Z" opacity=".332"/><g vectornator:layerName="path"><use vectornator:layerName="path" xlink:href="#f" fill="url(#e)" stroke="#000" stroke-linecap="butt" stroke-linejoin="miter" stroke-width="40"/><clipPath id="g" clip-rule="nonzero"><use xlink:href="#f"/></clipPath><g stroke="#000" stroke-linecap="butt" stroke-linejoin="miter" stroke-width="40" clip-path="url(#g)"><path vectornator:layerName="Oval 1" fill="url(#h)" d="M9.42 465.917C8.17 178.886 239.84-54.813 526.872-56.063c287.031-1.251 520.728 230.42 521.978 517.451 1.25 287.031-230.416 520.729-517.448 521.981-287.032 1.25-520.73-230.42-521.982-517.452Z"/><path vectornator:layerName="Oval 2" fill="url(#i)" d="M-270.617 986.864c-1.251-287.032 230.42-520.73 517.451-521.981 287.031-1.251 520.731 230.42 521.981 517.451 1.252 287.036-230.421 520.736-517.452 521.986-287.03 1.25-520.729-230.43-521.98-517.456Z"/><path vectornator:layerName="Oval 3" fill="url(#j)" d="M264.061 984.533c-1.25-287.031 230.421-520.729 517.452-521.981 287.027-1.25 520.737 230.421 521.987 517.452 1.25 287.036-230.42 520.726-517.456 521.976-287.033 1.26-520.731-230.42-521.983-517.447Z"/></g></g></g></g><path vectornator:layerName="Oval 1" fill="none" stroke="#000" stroke-linecap="butt" stroke-linejoin="miter" stroke-width="40" d="M22.27 530.27c0-280.561 227.439-508 508-508 280.561 0 508 227.439 508 508 0 280.561-227.439 508-508 508-280.561 0-508-227.439-508-508Z"/></g></svg>
